svg/outline/diners.svg

<?xml version="1.0" encoding="UTF-8" standalone="no"?>
<svg width="780px" height="501px" viewBox="0 0 780 501" version="1.1" xmlns="http://www.w3.org/2000/svg" xmlns:xlink="http://www.w3.org/1999/xlink" xmlns:sketch="http://www.bohemiancoding.com/sketch/ns">
    <!-- Generator: Sketch 3.3.1 (12005) - http://www.bohemiancoding.com/sketch -->
    <title>diners-outline</title>
    <desc>Created with Sketch.</desc>
    <defs></defs>
    <g id="Page-1" stroke="none" stroke-width="1" fill="none" fill-rule="evenodd" sketch:type="MSPage">
        <rect id="Rectangle-1" stroke="#393939" stroke-width="30" sketch:type="MSShapeGroup" x="15" y="15" width="750" height="471" rx="40"></rect>
        <path d="M599.933911,252.947339 C599.933911,153.53154 516.952976,84.8140806 426.038924,84.8471464 L347.79674,84.8471464 C255.793699,84.8140806 180.066089,153.552041 180.066089,252.947339 C180.066089,343.877778 255.793699,418.587432 347.79674,418.150963 L426.038924,418.150963 C516.952976,418.586771 599.933911,343.857939 599.933911,252.947339 Z M348.280302,98.9308394 C264.210378,98.9572921 196.085889,167.238282 196.066089,251.510581 C196.085889,335.768331 264.209719,404.042708 348.280302,404.069161 C432.370025,404.042708 500.508375,335.768331 500.520254,251.510581 C500.507715,167.238282 432.370025,98.9572921 348.280302,98.9308394 Z" id="Shape" fill="#373737" sketch:type="MSShapeGroup"></path>
        <path d="M252.066089,251.09774 L252.066089,251.09774 C252.145288,209.917524 277.812421,174.801587 314.006443,160.847134 L314.006443,341.327183 C277.812421,327.380667 252.144628,292.283907 252.066089,251.09774 L252.066089,251.09774 Z" id="Path" fill="#393939" sketch:type="MSShapeGroup"></path>
        <path d="M383.066089,341.372814 L383.066089,341.372814 L383.066089,160.847134 C419.273312,174.767859 444.980043,209.903637 445.046043,251.103692 C444.980043,292.316312 419.273312,327.425636 383.066089,341.372814 L383.066089,341.372814 Z" id="Path" fill="#393939" sketch:type="MSShapeGroup"></path>
    </g>
</svg>

<svg width="780" height="501" viewBox="0 0 780 501" xmlns="http://www.w3.org/2000/svg"><title>diners-outline</title><g fill="none" fill-rule="evenodd"><rect stroke="#393939" stroke-width="30" x="15" y="15" width="750" height="471" rx="40"/><path d="M599.934 252.947c0-99.415-82.981-168.133-173.895-168.1h-78.242c-92.003-.033-167.73 68.705-167.73 168.1 0 90.93 75.727 165.64 167.73 165.204h78.242c90.914.436 173.895-74.293 173.895-165.204zM348.28 98.931c-84.07.026-152.194 68.307-152.214 152.58.02 84.257 68.144 152.532 152.214 152.558 84.09-.026 152.228-68.3 152.24-152.558-.012-84.273-68.15-152.554-152.24-152.58z" fill="#373737"/><path d="M252.066 251.098c.08-41.18 25.746-76.296 61.94-90.25v180.48c-36.194-13.947-61.861-49.044-61.94-90.23zM383.066 341.373V160.847c36.207 13.92 61.914 49.057 61.98 90.257-.066 41.212-25.773 76.322-61.98 90.269z" fill="#393939"/></g></svg>
